www/assets/icons/store.svg

<svg xmlns="http://www.w3.org/2000/svg" width="24" height="24" viewBox="0 0 24 24" fill='currentColor'><path d="M20 4H4v2h16zm1 10v-2l-1-5H4l-1 5v2h1v6h10v-6h4v6h2v-6zm-9 4H6v-4h6z"/></svg>

<svg width="24" height="24" viewBox="0 0 24 24" xmlns="http://www.w3.org/2000/svg" fill='currentColor'><path d="M20 4H4V6H20V4ZM21 14V12L20 7H4L3 12V14H4V20H14V14H18V20H20V14H21ZM12 18H6V14H12V18Z"/></svg>
